X:1
T:RVW2/1/58 The Yorkshire Bite
T:RVW2/1/58 The Yorkshire Bite
T:Transcribed by Simon Furey and Lewis Jones
C:Transcribed by Simon Furey and Lewis Jones
L:1/8
Q:1/4=81
M:6/8
K:C
V:1 treble 
V:1
"^Editorial suggestion\n" (b"^cAF FGA/B/ | cBA G2 ||$ d | cBA GFA | cBA G2 G | ABc dfe | cde d2 d |$ dgd fed |"(a)va"^cAF F2 d |" .b)va"^cEF FGA/B/ | cBA G2 |]\n".d | %1
 cBA GFA | cBA G2 G | ABc dfe | cde d2 d | dgd fed |"^(a)" cEF G2 d | %7

